white/npxs.svg

<svg width="32" height="32" viewBox="0 0 32 32" xmlns="http://www.w3.org/2000/svg"><path d="M16 32C7.163 32 0 24.837 0 16S7.163 0 16 0s16 7.163 16 16-7.163 16-16 16zm-.028-28C9.372 4 4 9.372 4 15.972s5.372 11.982 11.982 11.982c6.609 0 11.981-5.372 11.981-11.982C27.963 9.363 22.582 4 15.973 4zm0 23.03c-6.092 0-11.058-4.956-11.058-11.058C4.924 9.88 9.88 4.923 15.972 4.923c6.093 0 11.059 4.957 11.059 11.059 0 6.092-4.957 11.049-11.059 11.049zM9.774 10.658l4.686 4.686.882-.881-4.687-4.687-.881.882zm6.818 6.82l4.686 4.687.882-.882-4.687-4.686-.881.881zm-1.496-1.502l.888.888.881-.881-.887-.888-.882.881zm1.509-1.474l.881.88 4.687-4.686-.882-.88-4.686 4.686zM9.808 21.29l.88.881 4.687-4.686-.881-.881-4.686 4.686z" fill="#FFF"/></svg>

<!-- Generated by IcoMoon.io -->
<svg version="1.1" xmlns="http://www.w3.org/2000/svg" width="32" height="32" viewBox="0 0 32 32">
<title>npxs</title>
<path fill="#fff" d="M16 32c-8.837 0-16-7.163-16-16s7.163-16 16-16 16 7.163 16 16-7.163 16-16 16zM15.972 4c-6.6 0-11.972 5.372-11.972 11.972s5.372 11.982 11.982 11.982c6.609 0 11.981-5.372 11.981-11.982s-5.381-11.972-11.99-11.972zM15.972 27.030c-6.092 0-11.058-4.956-11.058-11.058 0.010-6.092 4.966-11.049 11.058-11.049s11.059 4.957 11.059 11.059c0 6.092-4.957 11.049-11.059 11.049zM9.774 10.658l4.686 4.686 0.882-0.881-4.687-4.687-0.881 0.882zM16.592 17.478l4.686 4.687 0.882-0.882-4.687-4.686-0.881 0.881zM15.096 15.976l0.888 0.888 0.881-0.881-0.887-0.888-0.882 0.881zM16.605 14.502l0.881 0.88 4.687-4.686-0.882-0.88-4.686 4.686zM9.808 21.29l0.88 0.881 4.687-4.686-0.881-0.881-4.686 4.686z"></path>
</svg>
